X: 19676
T: Jennie's Frolics
R: reel
M: 4/4
K: Gmajor
|:GA|B2 GB c2Ac|B2 GB AF D2|B2 GB c2Ac|BGAF G2:|
|:GA|Bddg e2dc|B2 GB AF D2|Bddg e2dc|BGAF G2:|


